svg/zigbee2mqtt.svg

<svg xmlns="http://www.w3.org/2000/svg" width="1000" height="1000" class="thumb" viewBox="0 0 600 600"><svg width="186.77" height="186.769" transform="matrix(3.0453 0 0 3.0548 15.612 14.726)" viewBox="-5 -5 186.77 186.769"><defs><linearGradient id="a" x1="0" x2="1" y1=".5" y2=".5"><stop offset="0%"/><stop offset="100%"/></linearGradient></defs><path fill="url('#a')" d="M51.774 176.769 0 124.995V51.774L51.774 0h73.221l51.775 51.774v73.221l-51.775 51.774z"/></svg><svg width="186.77" height="186.769" transform="translate(22.309 23.223)scale(2.9634)" viewBox="-5 -5 186.77 186.769"><defs><linearGradient id="b" x1="0" x2="1" y1=".5" y2=".5"><stop offset="0%" stop-color="#ffc038"/><stop offset="100%" stop-color="#ffc038"/></linearGradient></defs><path fill="url('#b')" d="M51.774 176.769 0 124.995V51.774L51.774 0h73.221l51.775 51.774v73.221l-51.775 51.774z"/></svg><svg width="27.265" height="16.607" transform="translate(263.532 238.624)scale(2.9528)" viewBox="36.308 71.828 27.265 16.607"><defs><linearGradient id="c" x1="0" x2="1" y1=".5" y2=".5"><stop offset="0%"/><stop offset="100%"/></linearGradient></defs><path fill="url('#c')" d="M41.308 76.828c1.197 2.07 2.931 3.953 5.371 5.497 0 0 1.453 1.163 3.373 1.108 1.918.051 3.375-1.107 3.375-1.107 2.289-1.446 3.958-3.192 5.146-5.112-2.274.496-4.875.754-7.556.754-3.303 0-6.701-.385-9.709-1.14"/></svg><svg width="31.992" height="16.8" transform="translate(257.626 213.021)scale(2.9528)" viewBox="34.051 63.36 31.992 16.8"><defs><linearGradient id="d" x1="0" x2="1" y1=".5" y2=".5"><stop offset="0%" stop-color="#fff"/><stop offset="100%" stop-color="#fff"/></linearGradient></defs><path fill="url('#d')" d="M39.051 68.36c.055 1.736.307 3.47.818 5.141 5.94 2.063 15.1 2.206 20.244.407.563-1.692.85-3.453.93-5.221-2.995.938-6.551 1.364-10.114 1.364-4.27.001-8.535-.617-11.878-1.691"/></svg><svg width="31.868" height="16.631" transform="translate(257.626 189.247)scale(2.9528)" viewBox="34.128 55.641 31.868 16.631"><defs><linearGradient id="e" x1="0" x2="1" y1=".5" y2=".5"><stop offset="0%"/><stop offset="100%"/></linearGradient></defs><path fill="url('#e')" d="M50.929 62.06c-3.902 0-7.81-.511-11.006-1.419a31.477 31.477 0 0 0-.795 4.812c5.78 2.114 15.619 2.598 21.868.309a31.3 31.3 0 0 0-.745-4.846c-2.824.776-6.064 1.144-9.322 1.144"/></svg><svg width="28.836" height="15.788" transform="translate(262.055 168.777)scale(2.9528)" viewBox="35.678 48.491 28.836 15.788"><defs><linearGradient id="f" x1="0" x2="1" y1=".5" y2=".5"><stop offset="0%" stop-color="#fff"/><stop offset="100%" stop-color="#fff"/></linearGradient></defs><path fill="url('#f')" d="M59.514 58.241a36.436 36.436 0 0 0-1.862-4.75c-2.599.543-5.42.809-8.212.809a43.01 43.01 0 0 1-7.097-.579 37.169 37.169 0 0 0-1.665 4.246c5.384 1.534 13.17 1.846 18.836.274"/></svg><svg width="108.33" height="57.541" transform="translate(143.941 57.39)scale(2.9528)" viewBox="-4.359 10.889 108.33 57.541"><defs><linearGradient id="g" x1="0" x2="1" y1=".5" y2=".5"><stop offset="0%"/><stop offset="100%"/></linearGradient></defs><path fill="url('#g')" d="M58.786 38.047a17.897 17.897 0 0 0-1.406-2.589c-.11-.123-.253-.232-.394-.342a8.655 8.655 0 0 0 .659-3.324c0-3.374-1.896-6.271-4.6-7.523l2.116-7.369 6.143-.228a.394.394 0 0 0 .378-.405.401.401 0 0 0-.406-.378l-6.396.238a.385.385 0 0 0-.346.239l-3.563 7.305a7.153 7.153 0 0 0-.92-.065c-.314 0-.621.026-.924.066l-3.565-7.308a.394.394 0 0 0-.349-.237l-6.393-.236a.4.4 0 0 0-.407.376.392.392 0 0 0 .38.405l6.143.23 2.118 7.368c-2.703 1.252-4.598 4.147-4.597 7.52 0 1.184.239 2.307.659 3.323-.148.11-.288.223-.393.344 0 0-.739 1.108-1.38 2.663-12.159 3.542-43.982 8-40.427 17.816 3.944 10.877 25.455 7.546 29.052 4.598 5.007-4.104 9.231-7.95 11.843-11 .224.512.459.979.694 1.396 4.583.822 10.289.82 14.998-.245.166-.346.332-.731.496-1.137 2.625 3.011 6.768 6.769 11.648 10.77 3.596 2.949 25.106 6.275 29.048-4.599 3.507-9.681-27.4-14.153-39.909-17.672"/></svg><svg width="91.9" height="160" style="overflow:visible" transform="matrix(1.0086 -.0176 .0176 1.0086 260.206 308.968)"><defs><linearGradient id="h" x1="0" x2="1" y1=".5" y2=".5"><stop offset="0%"/><stop offset="100%"/></linearGradient></defs><path fill="url('#h')" d="M28.2-77.4V5.4q0 1.9-.85 2.75Q26.5 9 24.6 9H10.1q-1.9 0-2.75-.85Q6.5 7.3 6.5 5.4v-82.8q0-1.9.85-2.75Q8.2-81 10.1-81h14.5q1.9 0 2.75.85.85.85.85 2.75m57.2 0V5.4q0 1.9-.85 2.75Q83.7 9 81.8 9H67.3q-1.9 0-2.75-.85-.85-.85-.85-2.75v-82.8q0-1.9.85-2.75.85-.85 2.75-.85h14.5q1.9 0 2.75.85.85.85.85 2.75" data-dx="0" data-dy="0" data-font="Bungee" data-font-scale="contain" data-font-size="100" data-font-src="/Content/clientfonts/bungee.woff" data-letterspacing="0" data-offset=".5" data-side="left" data-text-anchor="middle" data-textpath="| |" data-x="0" data-xmlspace="preserve" data-y="0" transform="translate(0 75)"/></svg><svg width="289.3" height="160" style="overflow:visible" transform="translate(173.757 435.983)scale(.9144)"><defs><linearGradient id="i" x1="0" x2="1" y1=".5" y2=".5"><stop offset="0%"/><stop offset="100%"/></linearGradient></defs><path fill="url('#i')" d="M25.4 0H10.5Q8.6 0 7.75-.85 6.9-1.7 6.9-3.6v-64.8q0-1.9.85-2.75Q8.6-72 10.5-72h16.1q1.6 0 2.65.7 1.05.7 1.95 2.3l9 16.3q.5.9.85 1.3t.95.4h.9q.6 0 .95-.4t.85-1.3L53.6-69q.9-1.6 1.95-2.3 1.05-.7 2.65-.7h16.2q1.9 0 2.75.85.85.85.85 2.75v64.8q0 1.9-.85 2.75Q76.3 0 74.4 0H59q-1.9 0-2.75-.85-.85-.85-.85-2.75v-35.2l-5.9 10.9q-.9 1.7-2.15 2.45-1.25.75-3.15.75h-4q-1.9 0-3.15-.75T34.9-27.9L29-38.8v35.2q0 1.9-.85 2.75Q27.3 0 25.4 0m104 9H114q-1.9 0-2.75-.85-.85-.85-.85-2.75V-.1Q98.8-1.8 94.75-7.05 90.7-12.3 90.7-19.8V-53q0-4.6 1.35-8.35t4.8-6.45q3.45-2.7 9.55-4.2 6.1-1.5 15.4-1.5t15.35 1.5q6.05 1.5 9.5 4.2t4.8 6.45q1.35 3.75 1.35 8.35v33.2q0 3.8-.9 7.05T148.8-7q-2.2 2.5-6.05 4.3Q138.9-.9 133-.1v5.5q0 1.9-.85 2.75-.85.85-2.75.85m-16-58.3V-22q0 2 1.5 3.35t6.9 1.35q5.4 0 6.9-1.35t1.5-3.35v-27.3q0-1.9-1.5-3.25t-6.9-1.35q-5.4 0-6.9 1.35t-1.5 3.25M199 0h-16.2q-1.9 0-2.75-.85-.85-.85-.85-2.75v-49.1h-14.7q-1.9 0-2.75-.85-.85-.85-.85-2.75v-12.1q0-1.9.85-2.75.85-.85 2.75-.85h52.8q1.9 0 2.75.85.85.85.85 2.75v12.1q0 1.9-.85 2.75-.85.85-2.75.85h-14.7v49.1q0 1.9-.85 2.75Q200.9 0 199 0m65.6 0h-16.2q-1.9 0-2.75-.85-.85-.85-.85-2.75v-49.1h-14.7q-1.9 0-2.75-.85-.85-.85-.85-2.75v-12.1q0-1.9.85-2.75.85-.85 2.75-.85h52.8q1.9 0 2.75.85.85.85.85 2.75v12.1q0 1.9-.85 2.75-.85.85-2.75.85h-14.7v49.1q0 1.9-.85 2.75-.85.85-2.75.85" data-dx="0" data-dy="0" data-font="Bungee" data-font-scale="contain" data-font-size="100" data-font-src="/Content/clientfonts/bungee.woff" data-letterspacing="0" data-offset=".5" data-side="left" data-text-anchor="middle" data-textpath="MQTT" data-x="0" data-xmlspace="preserve" data-y="0" transform="translate(0 75)"/></svg></svg>

<svg xmlns="http://www.w3.org/2000/svg" xmlns:xlink="http://www.w3.org/1999/xlink" width="1000" height="1000" class="thumb" viewBox="0 0 600 600"><g><g transform="matrix(1.8288,0,0,1.8288,-76.3478,13.5303) matrix(1.6652,0,0,1.6704,50.2843,0.6537)"><svg width="186.77" height="186.769" viewBox="-5 -5 186.77 186.769"><defs><linearGradient id="linearGradientSk1zes2vk4" x1="0" x2="1" y1=".5" y2=".5"><stop offset="0%" stop-color="#000"/><stop offset="100%" stop-color="#000"/></linearGradient></defs><g><polygon fill="url('#linearGradientSk1zes2vk4')" points="51.774 176.769 0 124.995 0 51.774 51.774 0 124.995 0 176.77 51.774 176.77 124.995 124.995 176.769"/></g></svg></g><g transform="matrix(1.8288,0,0,1.8288,-76.3478,13.5303) matrix(1.6204,0,0,1.6204,53.946,5.3)"><svg width="186.77" height="186.769" viewBox="-5 -5 186.77 186.769"><defs><linearGradient id="linearGradientSk1zes2vka" x1="0" x2="1" y1=".5" y2=".5"><stop offset="0%" stop-color="#ffc038"/><stop offset="100%" stop-color="#ffc038"/></linearGradient></defs><g><polygon fill="url('#linearGradientSk1zes2vka')" points="51.774 176.769 0 124.995 0 51.774 51.774 0 124.995 0 176.77 51.774 176.77 124.995 124.995 176.769"/></g></svg></g><g transform="matrix(1.8288,0,0,1.8288,-76.3478,13.5303) matrix(1.6146,0,0,1.6146,185.8484,123.0829)"><svg width="27.265" height="16.607" viewBox="36.308 71.828 27.265 16.607"><defs><linearGradient id="linearGradientSk1zes2vkg" x1="0" x2="1" y1=".5" y2=".5"><stop offset="0%" stop-color="#000"/><stop offset="100%" stop-color="#000"/></linearGradient></defs><g><path fill="url('#linearGradientSk1zes2vkg')" d="M41.308,76.828c1.197,2.07,2.931,3.953,5.371,5.497c0,0,1.453,1.163,3.373,1.108c1.918,0.051,3.375-1.107,3.375-1.107 c2.289-1.446,3.958-3.192,5.146-5.112c-2.274,0.496-4.875,0.754-7.556,0.754C47.714,77.968,44.316,77.583,41.308,76.828z"/></g></svg></g><g transform="matrix(1.8288,0,0,1.8288,-76.3478,13.5303) matrix(1.6146,0,0,1.6146,182.6191,109.0829)"><svg width="31.992" height="16.8" viewBox="34.051 63.36 31.992 16.8"><defs><linearGradient id="linearGradientSk1zes2vkm" x1="0" x2="1" y1=".5" y2=".5"><stop offset="0%" stop-color="#fff"/><stop offset="100%" stop-color="#fff"/></linearGradient></defs><g><path fill="url('#linearGradientSk1zes2vkm')" d="M39.051,68.36c0.055,1.736,0.307,3.47,0.818,5.141c5.94,2.063,15.1,2.206,20.244,0.407c0.563-1.692,0.85-3.453,0.93-5.221 c-2.995,0.938-6.551,1.364-10.114,1.364C46.659,70.052,42.394,69.434,39.051,68.36z"/></g></svg></g><g transform="matrix(1.8288,0,0,1.8288,-76.3478,13.5303) matrix(1.6146,0,0,1.6146,182.6191,96.0829)"><svg width="31.868" height="16.631" viewBox="34.128 55.641 31.868 16.631"><defs><linearGradient id="linearGradientSk1zes2vks" x1="0" x2="1" y1=".5" y2=".5"><stop offset="0%" stop-color="#000"/><stop offset="100%" stop-color="#000"/></linearGradient></defs><g><path fill="url('#linearGradientSk1zes2vks')" d="M50.929,62.06c-3.902,0-7.81-0.511-11.006-1.419c-0.373,1.537-0.658,3.156-0.795,4.812 c5.78,2.114,15.619,2.598,21.868,0.309c-0.119-1.662-0.384-3.297-0.745-4.846C57.427,61.692,54.187,62.06,50.929,62.06z"/></g></svg></g><g transform="matrix(1.8288,0,0,1.8288,-76.3478,13.5303) matrix(1.6146,0,0,1.6146,185.041,84.8902)"><svg width="28.836" height="15.788" viewBox="35.678 48.491 28.836 15.788"><defs><linearGradient id="linearGradientSk1zes2vky" x1="0" x2="1" y1=".5" y2=".5"><stop offset="0%" stop-color="#fff"/><stop offset="100%" stop-color="#fff"/></linearGradient></defs><g><path fill="url('#linearGradientSk1zes2vky')" d="M59.514,58.241c-0.571-1.815-1.232-3.435-1.862-4.75c-2.599,0.543-5.42,0.809-8.212,0.809 c-2.458,0-4.881-0.204-7.097-0.579c-0.564,1.205-1.146,2.646-1.665,4.246C46.062,59.501,53.848,59.813,59.514,58.241z"/></g></svg></g><g transform="matrix(1.8288,0,0,1.8288,-76.3478,13.5303) matrix(1.6146,0,0,1.6146,120.4554,23.9828)"><svg width="108.33" height="57.541" viewBox="-4.359 10.889 108.33 57.541"><defs><linearGradient id="linearGradientSk1zes2vk14" x1="0" x2="1" y1=".5" y2=".5"><stop offset="0%" stop-color="#000"/><stop offset="100%" stop-color="#000"/></linearGradient></defs><g><path fill="url('#linearGradientSk1zes2vk14')" d="M58.786,38.047c-0.651-1.481-1.406-2.589-1.406-2.589c-0.11-0.123-0.253-0.232-0.394-0.342 c0.422-1.017,0.659-2.14,0.659-3.324c0-3.374-1.896-6.271-4.6-7.523l2.116-7.369l6.143-0.228c0.215-0.007,0.382-0.188,0.378-0.405 c-0.008-0.215-0.19-0.375-0.406-0.378l-6.396,0.238c-0.152,0.006-0.287,0.095-0.346,0.239l-3.563,7.305 c-0.302-0.039-0.607-0.065-0.92-0.065c-0.314,0-0.621,0.026-0.924,0.066l-3.565-7.308c-0.058-0.138-0.193-0.23-0.349-0.237 l-6.393-0.236c-0.216-0.001-0.396,0.161-0.407,0.376c-0.006,0.218,0.163,0.398,0.38,0.405l6.143,0.23l2.118,7.368 c-2.703,1.252-4.598,4.147-4.597,7.52c0,1.184,0.239,2.307,0.659,3.323c-0.148,0.11-0.288,0.223-0.393,0.344 c0,0-0.739,1.108-1.38,2.663C29.184,41.662-2.639,46.12,0.916,55.936c3.944,10.877,25.455,7.546,29.052,4.598 c5.007-4.104,9.231-7.95,11.843-11c0.224,0.512,0.459,0.979,0.694,1.396c4.583,0.822,10.289,0.82,14.998-0.245 c0.166-0.346,0.332-0.731,0.496-1.137c2.625,3.011,6.768,6.769,11.648,10.77c3.596,2.949,25.106,6.275,29.048-4.599 C102.202,46.038,71.295,41.566,58.786,38.047z"/></g></svg></g><g transform="matrix(1.8288,0,0,1.8288,-76.3478,13.5303) matrix(0.5515,-0.0096,0.0096,0.5515,184.0296,161.5473)"><svg width="91.9" height="160" style="overflow:visible"><defs><linearGradient id="linearGradientSk1zes2vk1g" x1="0" x2="1" y1=".5" y2=".5"><stop offset="0%" stop-color="#000"/><stop offset="100%" stop-color="#000"/></linearGradient></defs><g><path fill="url('#linearGradientSk1zes2vk1g')" d="M 28.2-77.4L 28.2-77.4L 28.2 5.4Q 28.2 7.3 27.35 8.15Q 26.5 9 24.6 9L 24.6 9L 10.1 9Q 8.2 9 7.35 8.15Q 6.5 7.3 6.5 5.4L 6.5 5.4L 6.5-77.4Q 6.5-79.3 7.35-80.15Q 8.2-81 10.1-81L 10.1-81L 24.6-81Q 26.5-81 27.35-80.15Q 28.2-79.3 28.2-77.4ZM 85.39999999999998-77.4L 85.39999999999998-77.4L 85.39999999999998 5.4Q 85.39999999999998 7.3 84.54999999999998 8.15Q 83.69999999999999 9 81.79999999999998 9L 81.79999999999998 9L 67.29999999999998 9Q 65.39999999999998 9 64.54999999999998 8.15Q 63.69999999999998 7.3 63.69999999999998 5.4L 63.69999999999998 5.4L 63.69999999999998-77.4Q 63.69999999999998-79.3 64.54999999999998-80.15Q 65.39999999999998-81 67.29999999999998-81L 67.29999999999998-81L 81.79999999999998-81Q 83.69999999999999-81 84.54999999999998-80.15Q 85.39999999999998-79.3 85.39999999999998-77.4Z" data-dx="0" data-dy="0" data-font="Bungee" data-font-scale="contain" data-font-size="100" data-font-src="/Content/clientfonts/bungee.woff" data-letterspacing="0" data-offset=".5" data-side="left" data-text-anchor="middle" data-textpath="| |" data-x="0" data-xmlspace="preserve" data-y="0" transform="matrix(1,0,0,1,0,75) translate(0,0)"/></g></svg></g><g transform="matrix(1.8288,0,0,1.8288,-76.3478,13.5303) matrix(0.5,0,0,0.5,136.759,231)"><svg width="289.3" height="160" style="overflow:visible"><defs><linearGradient id="linearGradientSk1zes2vk1j" x1="0" x2="1" y1=".5" y2=".5"><stop offset="0%" stop-color="#000"/><stop offset="100%" stop-color="#000"/></linearGradient></defs><g><path fill="url('#linearGradientSk1zes2vk1j')" d="M 25.4 0L 25.4 0L 10.5 0Q 8.6 0 7.75-0.85Q 6.9-1.7 6.9-3.6L 6.9-3.6L 6.9-68.4Q 6.9-70.3 7.75-71.15Q 8.6-72 10.5-72L 10.5-72L 26.6-72Q 28.2-72 29.25-71.3Q 30.3-70.6 31.2-69L 31.2-69L 40.2-52.7Q 40.7-51.8 41.05-51.4Q 41.4-51 42-51L 42-51L 42.9-51Q 43.5-51 43.85-51.4Q 44.2-51.8 44.7-52.7L 44.7-52.7L 53.6-69Q 54.5-70.6 55.55-71.3Q 56.6-72 58.2-72L 58.2-72L 74.4-72Q 76.3-72 77.15-71.15Q 78-70.3 78-68.4L 78-68.4L 78-3.6Q 78-1.7 77.15-0.85Q 76.3 0 74.4 0L 74.4 0L 59 0Q 57.1 0 56.25-0.85Q 55.4-1.7 55.4-3.6L 55.4-3.6L 55.4-38.8L 49.5-27.9Q 48.6-26.2 47.35-25.45Q 46.1-24.7 44.2-24.7L 44.2-24.7L 40.2-24.7Q 38.3-24.7 37.05-25.45Q 35.8-26.2 34.9-27.9L 34.9-27.9L 29-38.8L 29-3.6Q 29-1.7 28.15-0.85Q 27.3 0 25.4 0ZM 129.4 9L 129.4 9L 114 9Q 112.10000000000001 9 111.25 8.15Q 110.4 7.3 110.4 5.4L 110.4 5.4L 110.4-0.1Q 98.80000000000001-1.8 94.75-7.05Q 90.7-12.3 90.7-19.8L 90.7-19.8L 90.7-53Q 90.7-57.6 92.05000000000001-61.35Q 93.4-65.1 96.85000000000001-67.8Q 100.30000000000001-70.5 106.4-72Q 112.5-73.5 121.80000000000001-73.5L 121.80000000000001-73.5Q 131.10000000000002-73.5 137.15-72Q 143.2-70.5 146.65-67.8Q 150.10000000000002-65.1 151.45-61.35Q 152.8-57.6 152.8-53L 152.8-53L 152.8-19.8Q 152.8-16 151.9-12.75Q 151-9.5 148.8-7Q 146.60000000000002-4.5 142.75-2.7Q 138.9-0.9 133-0.1L 133-0.1L 133 5.4Q 133 7.3 132.15 8.15Q 131.3 9 129.4 9ZM 113.4-49.3L 113.4-22Q 113.4-20 114.9-18.65Q 116.4-17.3 121.80000000000001-17.3L 121.80000000000001-17.3Q 127.2-17.3 128.7-18.65Q 130.2-20 130.2-22L 130.2-22L 130.2-49.3Q 130.2-51.2 128.7-52.55Q 127.2-53.9 121.80000000000001-53.9L 121.80000000000001-53.9Q 116.4-53.9 114.9-52.55Q 113.4-51.2 113.4-49.3L 113.4-49.3ZM 199 0L 199 0L 182.79999999999998 0Q 180.9 0 180.04999999999998-0.85Q 179.2-1.7 179.2-3.6L 179.2-3.6L 179.2-52.7L 164.5-52.7Q 162.6-52.7 161.75-53.55Q 160.9-54.4 160.9-56.3L 160.9-56.3L 160.9-68.4Q 160.9-70.3 161.75-71.15Q 162.6-72 164.5-72L 164.5-72L 217.3-72Q 219.2-72 220.05-71.15Q 220.89999999999998-70.3 220.89999999999998-68.4L 220.89999999999998-68.4L 220.89999999999998-56.3Q 220.89999999999998-54.4 220.05-53.55Q 219.2-52.7 217.3-52.7L 217.3-52.7L 202.6-52.7L 202.6-3.6Q 202.6-1.7 201.75-0.85Q 200.89999999999998 0 199 0ZM 264.6 0L 264.6 0L 248.40000000000003 0Q 246.50000000000006 0 245.65000000000003-0.85Q 244.80000000000004-1.7 244.80000000000004-3.6L 244.80000000000004-3.6L 244.80000000000004-52.7L 230.10000000000005-52.7Q 228.20000000000005-52.7 227.35000000000005-53.55Q 226.50000000000006-54.4 226.50000000000006-56.3L 226.50000000000006-56.3L 226.50000000000006-68.4Q 226.50000000000006-70.3 227.35000000000005-71.15Q 228.20000000000005-72 230.10000000000005-72L 230.10000000000005-72L 282.90000000000003-72Q 284.80000000000007-72 285.65000000000003-71.15Q 286.50000000000006-70.3 286.50000000000006-68.4L 286.50000000000006-68.4L 286.50000000000006-56.3Q 286.50000000000006-54.4 285.65000000000003-53.55Q 284.80000000000007-52.7 282.90000000000003-52.7L 282.90000000000003-52.7L 268.20000000000005-52.7L 268.20000000000005-3.6Q 268.20000000000005-1.7 267.35-0.85Q 266.50000000000006 0 264.6 0Z" data-dx="0" data-dy="0" data-font="Bungee" data-font-scale="contain" data-font-size="100" data-font-src="/Content/clientfonts/bungee.woff" data-letterspacing="0" data-offset=".5" data-side="left" data-text-anchor="middle" data-textpath="MQTT" data-x="0" data-xmlspace="preserve" data-y="0" transform="matrix(1,0,0,1,0,75) translate(0,0)"/></g></svg></g></g></svg>
